

d1 $ sound "drum"

d1 $ sound "drum:1"

d1 $ s "future"

d1 $ sound "bd cp"

d1 $ sound "bd hh sn hh"

setcps 0.5

d1 $ sound "bd bd hh bd sn hh bd"
d2 $ sound "sn sn:2 sn bd sn"

d1 $ s "arpy cp arpy:2"
d2 $ s "sn sn:2 bd sn"

d1 $ s "bd ~ sn:3 bd sn:5 ~ bd:2 sn:2"

d1 $ s "bd [bd cp] bd bd"

d1 $ "[bd bd sn:5] [bd sn:3]"

d1 $ "bd [bd [sn sn]] cp"

d1 $ s "bd sd*2"

d1 $ s "[bd bd/2] [sn/2, cp]"

d1 $ s "bd <sd cp arpy>"

d1 $ s "drum drum drum drum" # vowel "a o x x"

d1 $ s "drum drum drum drum" # vowel "a o p p"

d1 $ s "[drum drum/2] cp" # gain 1

d1 $ s "numbers:1 numbers:2 numbers:3 numbers:4" # speed "1 1.5 2 0.5"

d1 $ s "jungbass:6" # speed "1 2 4"

d1 $ speed "1 2 4" # sound "jungbass:6"

d1 $ up "0 ~ 12 24" # sound "jungbass:6"

d1 $ s "numbers:1 numbers:2 numbers:3 numbers:4" # pan "0 0.5 1"

d1 $ s "kurt:4 kurt:4" # shape "0 0.78" -- # gain "0.7"

d1 $ s "cp" # delay 0.5 # delaytime (1/6) # delayfeedback 0.6 # lock 1

d1 $ s "[~ sn]" # dry 0.4 # room 0.6 # size 0.8

d1 $ s "tabla*4" # n "0 1 2 3" # cutoff 400 # resonance 0.2

d1 $ s "tabla*4" # n "0 1 2 3" # hcutoff 600 # hresonance 0.2

d1 $ s "tabla*4" # n "0 1 2 3"

setcps 0.5
d1 $ s "[drum drum/2 cp ~]*2"
d1 $ s "drum drum cp cp drum drum cp ~"

-- STFU or CRTL+. to HUSH
d1 $ silence
